X:69
T:Jack Coen's
Z: id:dc-jig-57
M:6/8
L:1/8
K:G Major
ded cAF|GAG FDB|DGB c3|ded ABc|!
ded cAF|GAG FDB|DGB c2d|AGF G3:|!
GBd g3|GBd cAF|GBd g3|faf gdB|!
GBd g3|GBd cAF|DGB c2d|AGF G3:|!

